X:1
T:Title
%%score { ( 1 4 ) | ( 2 3 ) }
L:1/8
Q:1/4=100
M:4/4
K:Eb
V:1 treble nm="Grand Piano"
V:4 treble 
V:2 bass 
V:3 bass 
V:1
 [B,G]3 [A,F] [G,E]2 [CA]2 | [B,G]3 [G,E] [B,G]2 [A,F]2 | [CA]2[K:bass][K:treble] G2 z4 | %3
w: Edwin~O.~Excell * * *|||
 E4[K:bass] E2 z2 | [B,G]3 [A,F] [G,E]2 [CA]2 | [B,G]3 [G,E] [B,G]2 [A,F]2 | %6
w: |||
 [CA]2[K:bass][K:treble] G2 z4 | [G,E]6 z2 | [GB]3 [GB] [EG]2 [Ge]2 | %9
w: |||
 [Bd]2 .[CAc]2 [EGB]2 [B,EG]2 | [EGB]3 [B,EG] [Ge]2 [EGB]2 | [EBd]2 [EAc]2 [GB]2 [B,FA]2 | %12
w: |||
 [B,G]3 [A,F] [G,E]2 [CA]2 | [B,G]3 [G,E] [B,G]2 [A,F]2 | [CA]3 [B,G] [A,F]2 [B,G]2 | [G,E]6 z2 |] %16
w: ||||
V:2
 z E,E,E, z E,E,E, | z E,E,E, z B,,B,,B,, | z2 [B,,B,]B,, z B,,B,,B,, | z E, G,4 z2 | %4
 z E,E,E, z E,E,E, | z E,E,E, z B,,B,,B,, | z2 [B,,B,]B,, z B,,B,,B,, | z E,B,,G,, E,,2 z2 | %8
 [E,E]3 [E,E] [E,B,]2 [E,B,]2 | A,B, z D E,2 E,2 | E,3 E, [E,B,]2 E,2 | A,2 A,2 B,2 B,,2 | %12
 z E,E,E, z E,E,E, | z E,E,E, z B,,B,,B,, | z B,,B,,B,, z B,,B,,B,, | z E,B,,G,, E,,2 z2 |] %16
V:3
 E,,4 E,,4 | E,,4 B,,,4 | B,,,4 B,,,4 | E,,6 z2 | E,,4 E,,4 | E,,4 B,,,4 | B,,,4 B,,,4 | E,,4 z4 | %8
 x8 | A,,2 A,,2 z4 | x8 | x8 | E,,4 E,,4 | E,,4 B,,,4 | B,,,4 B,,,4 | E,,4 z4 |] %16
V:4
 x8 | x8 | z[K:bass] B,,[K:treble] z B, [A,F]2 [B,G]2 | G,2 z[K:bass] B, z B,G,E, | x8 | x8 | %6
 z[K:bass] B,,[K:treble] z B, [A,F]2 [B,G]2 | x8 | x8 | x8 | x8 | x8 | x8 | x8 | x8 | x8 |] %16

